!!!OTL: 173. Freylekhs
!!!Genre:	Freylekhs
!!!Mode:	Major (Mixolydian)
!!!Listening/dance:	dance
!!!One_Mode:	yes
**kern
*I"P1
*clefG2
*k[f#]
*G:
*M2/4
*>A
=1
8ddL
8bJ
8ddL
8bJ
=2
8ddL
8bJ
8aL
8gJ
=3
8aL
8bJ
(8qdd/
(16ccLL)
16bJ
8aJ)
=4
8a
(8qcc/
4b)
8b
=5
8ddL
8bJ
8ddL
8bJ
=6
8ddL
8bJ
8aL
8gJ
=7
8aL
8bJ
(8qdd/
(16ccLL)
16bJ
8aJ)
=8
2g
=9||
*>B
8.ddL
16eeJk
12ffnL
12ee
12ddJ
=10
4.gg
8b
=11
8ccL
8b
8cc
8ddJ
=12
8cc
4b
8g
=13
8.ddL
16eeJk
12ffnL
12ee
12ddJ
=14
4.gg
8b
=15
8ccL
8b
8cc
8ddJ
=16
8cc
4b
8g
=17
8ddL
8g
8a
8bJ
=18
(8qdd/
8cc)
4b
8g
=19
8aL
8gJ
(8qdd/
8cc)
8bJ
=20
8a
(8qcc/
4b)
8b
=21
8ddL
8g
8a
8bJ
=22
8cc
4b
8g
=23
8aL
8g
8aJ
(8qcc/
8bJ)
=24
2g
==
*-
